X:1
T:Save Me Now
T:Save Me Now
T:Wiliam James Kirkpatrick
T:Frances Jane (Fanny) Crosby, 1881
T:Public Domain Courtesy of the Cyber Hymnal™
C:Wiliam James Kirkpatrick
Z:Public Domain
Z:Courtesy of the Cyber Hymnal™
%%score 1 ( 2 3 )
L:1/8
Q:1/4=102
M:4/4
K:A
V:1 treble 
V:2 bass 
V:3 bass 
V:1
 [CE]3 [DF] [CE]>[A,C] [CE]>[CA] | [Ec]4 [CA]2 z2 | [DF]2 [FA]2 [EA]2 [Ec]2 | [EB]6 z2 | %4
w: 1.~Lord, my way- ward heart is|brok- en,|May I come to|Thee?|
w: 2.~Tho’ I long have grieved Thy|Spir- it,|Long re- fused Thy|grace,|
w: 3.~Could my faith but touch Thy|gar- ment,|Healed my soul would|be;|
w: 4.~Save me now, or I must|per- ish,|Save me, I im-|plore;|
 [Ec]3 [Fd] [Ec]>[DB] [CA]>[DB] | [Ec]4 [CA]2 z2 | [DB]2 [FB]2 [EA]2 [EG]2 | [EA]6 z2 || %8
w: In Thy gen- tle arms of|mer- cy|Hast Thou room for|me?|
w: Do not cast me from Thy|pre- sence,|Do not hide Thy|face.|
w: Let Thy smile of sweet for-|give- ness,|Shed one beam for|me.|
w: Speak those lov- ing words so|ten- der,|“Go and sin no|more.”|
"^Refrain" [Fd]4 [EB]4 | [Ec]4 [Ee]4 | [FA]>[FA] [FA]>[FA] [GB]2 [Ec]2 | [EB]6 z2 | %12
w: ||||
w: ||||
w: ||||
w: ||||
 [Ec]3 [Fd] [Ec]>[DB] [CA]>[DB] | [Ec]4 [CA]2 z2 | [DB]2 [FB]2 [EA]2 [EG]2 | [EA]6 z2 |] %16
w: ||||
w: ||||
w: ||||
w: ||||
V:2
 [A,,A,]3 [A,,A,] [A,,A,]>[A,,E,] [A,,A,]>[A,,A,] | [A,,A,]4 [A,,A,]2 z2 | %2
w: ~ ~ ~ ~ ~ ~|~ ~|
 [D,A,]2 [D,A,]2 [C,A,]2 [A,,A,]2 | [E,G,]6 z2 | %4
w: ~ ~ ~ ~|~|
 [A,,A,]3 .[A,,A,] [A,,A,]>[A,,E,] [A,,E,]>[A,,E,] | [A,,A,]4 [A,,A,]2 z2 | %6
w: ~ ~ ~ ~ ~ ~|~ ~|
 [D,F,]2 [D,D]2 [E,C]2 [E,B,]2 | [A,,C]6 z2 || [D,A,]4 [E,G,]4 | A,4 [A,C]4 | %10
w: ~ ~ ~ ~|~|Save me!|Save me!|
 [F,C]>[F,C] [F,C]>[F,C] [E,E]2 A,2 | [E,G,]6 z2 | %12
w: Weep- ing at the cross I|bow;|
 [A,,A,]3 .[A,,A,] [A,,A,]>[A,,E,] [A,,E,]>[A,,E,] | [A,,A,]4 [A,,A,]2 z2 | %14
w: Hear my hum- ble sup- pli-|ca- tion:|
 [D,F,]2 [D,D]2 [E,C]2 [E,B,]2 | [A,,C]6 z2 |] %16
w: Je- sus, save me|now.|
V:3
 x8 | x8 | x8 | x8 | x8 | x8 | x8 | x8 || x8 | A,4 x4 | x6 A,2 | x8 | x8 | x8 | x8 | x8 |] %16

